public/images/footer-linkedin.svg

<svg width="32" height="32" viewBox="0 0 32 32" fill="none" xmlns="http://www.w3.org/2000/svg">
    <path id="Vector" d="M28.4444 0C29.3874 0 30.2918 0.374602 30.9586 1.0414C31.6254 1.70819 32 2.61256 32 3.55556V28.4444C32 29.3874 31.6254 30.2918 30.9586 30.9586C30.2918 31.6254 29.3874 32 28.4444 32H3.55556C2.61256 32 1.70819 31.6254 1.0414 30.9586C0.374602 30.2918 0 29.3874 0 28.4444V3.55556C0 2.61256 0.374602 1.70819 1.0414 1.0414C1.70819 0.374602 2.61256 0 3.55556 0H28.4444ZM27.5556 27.5556V18.1333C27.5556 16.5963 26.945 15.1221 25.8581 14.0353C24.7712 12.9484 23.2971 12.3378 21.76 12.3378C20.2489 12.3378 18.4889 13.2622 17.6356 14.6489V12.6756H12.6756V27.5556H17.6356V18.7911C17.6356 17.4222 18.7378 16.3022 20.1067 16.3022C20.7668 16.3022 21.3998 16.5644 21.8666 17.0312C22.3333 17.498 22.5956 18.131 22.5956 18.7911V27.5556H27.5556ZM6.89778 9.88445C7.68989 9.88445 8.44956 9.56978 9.00967 9.00967C9.56978 8.44956 9.88445 7.68989 9.88445 6.89778C9.88445 5.24444 8.55111 3.89333 6.89778 3.89333C6.10095 3.89333 5.33676 4.20987 4.77331 4.77331C4.20987 5.33676 3.89333 6.10095 3.89333 6.89778C3.89333 8.55111 5.24444 9.88445 6.89778 9.88445ZM9.36889 27.5556V12.6756H4.44444V27.5556H9.36889Z" fill="white"/>
</svg>

<svg width="32" height="32" fill="none" xmlns="http://www.w3.org/2000/svg"><path d="M28.444 0A3.556 3.556 0 0 1 32 3.556v24.888A3.556 3.556 0 0 1 28.444 32H3.556A3.556 3.556 0 0 1 0 28.444V3.556A3.556 3.556 0 0 1 3.556 0h24.888zm-.888 27.556v-9.423a5.795 5.795 0 0 0-5.796-5.795c-1.511 0-3.271.924-4.124 2.31v-1.972h-4.96v14.88h4.96V18.79a2.481 2.481 0 0 1 2.47-2.489 2.489 2.489 0 0 1 2.49 2.49v8.764h4.96zM6.898 9.884a2.987 2.987 0 0 0 2.986-2.986c0-1.654-1.333-3.005-2.986-3.005a3.004 3.004 0 0 0-3.005 3.005c0 1.653 1.351 2.986 3.005 2.986zm2.47 17.672v-14.88H4.445v14.88H9.37z" fill="#fff"/></svg>
